Papirus/22x22/panel/wire-tray-attention.svg

<?xml version="1.0" encoding="UTF-8" standalone="no"?>
<svg xmlns:dc="http://purl.org/dc/elements/1.1/" xmlns:cc="http://creativecommons.org/ns#" xmlns:rdf="http://www.w3.org/1999/02/22-rdf-syntax-ns#" xmlns:svg="http://www.w3.org/2000/svg" xmlns="http://www.w3.org/2000/svg" version="1.0" width="22" height="22" id="svg2817">
    <metadata id="metadata57">
        <rdf:RDF>
            <cc:Work rdf:about="">
                <dc:format>
                    image/svg+xml
                </dc:format>
                <dc:type rdf:resource="http://purl.org/dc/dcmitype/StillImage"/>
                <dc:title/>
            </cc:Work>
        </rdf:RDF>
    </metadata>
    <path id="rect4203-6-2" d="m 11,3 c -4.432,0 -8,3.568 -8,8 0,4.432 3.568,8 8,8 4.432,0 8,-3.568 8,-8 0,-4.432 -3.568,-8 -8,-8 z m -5,4 1,0 0,5.412109 c 0,0 -0.00159,0.358173 0.28125,0.751953 C 7.5640949,13.557844 8.1159656,14 9.5,14 9.6057002,14 9.6361761,13.963922 9.7324219,13.958984 9.6611204,13.882377 9.525517,13.827077 9.46875,13.748047 9.00159,13.097702 9,12.412109 9,12.412109 l 0,-4.339843 0.00391,-0.0293 c 0,0 0.023825,-0.144621 0.083984,-0.263672 C 9.14805,7.660243 9.2510317,7.520719 9.4082031,7.398435 9.722546,7.153868 10.222678,6.9887377 11.007813,7 c 0.7801,0.01119 1.26575,0.174702 1.576171,0.408203 0.155211,0.116751 0.260154,0.250978 0.322266,0.367188 0.06212,0.116209 0.08984,0.261718 0.08984,0.261718 l 0.0039,0.0332 0,4.341796 c 0,0 -0.0016,0.685583 -0.46875,1.335938 -0.05676,0.07903 -0.192373,0.134329 -0.263672,0.210937 C 12.363824,13.963923 12.3943,14 12.5,14 13.884034,14 14.435932,13.557835 14.71875,13.164062 15.0016,12.770291 15,12.412109 15,12.412109 L 15,7 l 1,0 0,5.412109 c 0,0 -0.0016,0.685575 -0.46875,1.335938 C 15.064141,14.398409 14.116057,15 12.5,15 11.877564,15 11.434918,14.852068 11,14.705078 10.565087,14.85207 10.122436,15 9.5,15 7.8839429,15 6.9358857,14.3984 6.46875,13.748047 6.00161,13.097694 6,12.412109 6,12.412109 L 6,7 Z m 4.992188,1 c -0.639046,-0.0092 -0.889112,0.125539 -0.96875,0.1875 -0.02172,0.0169 -0.01804,0.01642 -0.02344,0.02344 l 0,4.201171 c 0,0 -0.00162,0.358165 0.28125,0.751953 0.143433,0.199678 0.36351,0.409743 0.71875,0.570313 0.355228,-0.160568 0.575331,-0.37064 0.71875,-0.570313 C 12.00159,12.770283 12,12.412109 12,12.412109 l 0,-4.189453 c -0.0065,-0.0066 4.6e-5,-0.0019 -0.01563,-0.01367 C 11.900868,8.146169 11.636268,8.00924 10.992188,8 Z" style="opacity:1;fill:#ffffff;fill-opacity:1"/>
    <circle r="2" cy="17" cx="20" id="path4822" style="opacity:1;fill:#5294e2;fill-opacity:1;stroke:none;stroke-width:1;stroke-linecap:round;stroke-linejoin:round;stroke-miterlimit:4;stroke-dasharray:none;stroke-opacity:1"/>
</svg>

<?xml version="1.0" encoding="UTF-8" standalone="no"?>
<svg id="svg2817" xmlns:rdf="http://www.w3.org/1999/02/22-rdf-syntax-ns#" xmlns="http://www.w3.org/2000/svg" height="22" width="22" version="1.0" xmlns:cc="http://creativecommons.org/ns#" xmlns:dc="http://purl.org/dc/elements/1.1/">
 <metadata id="metadata57">
  <rdf:RDF>
   <cc:Work rdf:about="">
    <dc:format>image/svg+xml</dc:format>
    <dc:type rdf:resource="http://purl.org/dc/dcmitype/StillImage"/>
    <dc:title/>
   </cc:Work>
  </rdf:RDF>
 </metadata>
 <path id="rect4203-6-2" d="m11 3c-4.432 0-8 3.568-8 8s3.568 8 8 8 8-3.568 8-8-3.568-8-8-8zm-5 4h1v5.4121s-0.00159 0.35817 0.28125 0.75195c0.2829 0.394 0.8348 0.836 2.2188 0.836 0.1057 0 0.1362-0.036 0.2324-0.041-0.0713-0.077-0.2069-0.132-0.2636-0.211-0.4672-0.65-0.4688-1.336-0.4688-1.336v-4.3398l0.00391-0.0293s0.023825-0.14462 0.083984-0.26367c0.0601-0.119 0.1631-0.2585 0.3203-0.3808 0.3143-0.2445 0.8148-0.4097 1.5998-0.3984 0.7801 0.01119 1.2658 0.1747 1.5762 0.4082 0.15521 0.11675 0.26015 0.25098 0.32227 0.36719s0.08984 0.26172 0.08984 0.26172l0.0039 0.0332v4.3418s-0.0016 0.68558-0.46875 1.3359c-0.05676 0.07903-0.19237 0.13433-0.26367 0.21094 0.096 0.005 0.126 0.041 0.232 0.041 1.384 0 1.936-0.442 2.219-0.836s0.281-0.752 0.281-0.752v-5.412h1v5.4121s-0.0016 0.68558-0.46875 1.3359c-0.467 0.65-1.415 1.252-3.031 1.252-0.622 0-1.065-0.148-1.5-0.295-0.435 0.147-0.878 0.295-1.5 0.295-1.6161 0-2.5641-0.602-3.0312-1.252-0.4672-0.65-0.4688-1.336-0.4688-1.336v-5.412zm4.9922 1c-0.63905-0.0092-0.88911 0.12554-0.96875 0.1875-0.02172 0.0169-0.01804 0.01642-0.02344 0.02344v4.2012s-0.00162 0.35816 0.28125 0.75195c0.14343 0.19968 0.36351 0.40974 0.71875 0.57031 0.35523-0.16057 0.57533-0.37064 0.71875-0.57031 0.283-0.394 0.281-0.752 0.281-0.752v-4.1895c-0.0065-0.0066 0.000046-0.0019-0.01563-0.01367-0.083-0.0626-0.348-0.1996-0.992-0.2088z" fill="#fff"/>
 <circle id="path4822" cy="17" cx="20" r="2" fill="#5294e2"/>
</svg>
